package/converter/svg/duotone/grate-droplet.svg

<svg xmlns="http://www.w3.org/2000/svg" viewBox="0 0 576 512"><!-- Font Awesome Pro 6.0.0-alpha2 by @fontawesome - https://fontawesome.com License - https://fontawesome.com/license (Commercial License) --><defs><style>.fa-secondary{opacity:.4}</style></defs><path d="M384 32H64C28.654 32 0 60.652 0 96V416C0 451.346 28.654 480 64 480H344.217C328.967 457.262 320 430.004 320 400.672C320 362.945 334.801 334.967 352 309.361V288H366.824C384.611 262.926 402.699 236.561 414.773 196.576C419.771 180.035 432.318 167.656 448 162.574V96C448 60.652 419.346 32 384 32ZM96 416H64V288H96V416ZM96 224H64V96H96V224ZM192 416H160V288H192V416ZM192 224H160V96H192V224ZM288 416H256V288H288V416ZM288 224H256V96H288V224ZM384 224H352V96H384V224Z" class="fa-secondary"/><path d="M482.594 205.83C477.562 187.783 451.094 187.002 445.406 205.83C415.656 304.344 352 331.219 352 400.672C352 462.156 402.094 512 464 512S576 462.156 576 400.672C576 330.828 512.49 304.891 482.594 205.83Z" class="fa-primary"/></svg>

<svg xmlns="http://www.w3.org/2000/svg" viewBox="0 0 576 512"><!--! Font Awesome Pro 6.6.0 by @fontawesome - https://fontawesome.com License - https://fontawesome.com/license (Commercial License) Copyright 2024 Fonticons, Inc. --><defs><style>.fa-secondary{opacity:.4}</style></defs><path class="fa-secondary" d="M0 96L0 256 0 416c0 35.3 28.7 64 64 64l64 0 96 0 96 0 24.2 0c-15.3-22.9-24.2-50.4-24.2-80c0-23.6 5.8-46.9 16.9-67.8l75.3-141.2c7.6-14.3 20.6-24.5 35.8-28.8L448 96c0-35.3-28.7-64-64-64l-64 0-96 0-96 0L64 32C28.7 32 0 60.7 0 96zm64 0l32 0 0 128-32 0L64 96zm0 192l32 0 0 128-32 0 0-128zM160 96l32 0 0 128-32 0 0-128zm0 192l32 0 0 128-32 0 0-128zM256 96l32 0 0 128-32 0 0-128zm0 192l32 0 0 128-32 0 0-128zM352 96l32 0 0 128-32 0 0-128z"/><path class="fa-primary" d="M365.2 347.3l75.3-141.2c4.6-8.7 13.7-14.1 23.5-14.1s18.9 5.4 23.5 14.1l75.3 141.2c8.7 16.2 13.2 34.3 13.2 52.7c0 61.9-50.1 112-112 112s-112-50.1-112-112c0-18.4 4.5-36.5 13.2-52.7z"/></svg>
